_inc/systems/logos/actionmax.svg

<svg xmlns="http://www.w3.org/2000/svg" viewBox="0.24 107.93 799.3 133.4"><path d="m336.25 126.25 2.78-16.77a1 .99 85.6 0 1 .66-.78l1.96-.69a1.36 1.36 0 0 1 1.79 1.52q-1.27 7.08-2.28 13.61c-.49 3.11-1.87 3.91-4.91 3.11m361.02 79.21q1.23-.73 2.79-2.65 12.66-15.47 25.43-30.96a2.2 2.2 51 0 0 .24-2.37l-19.95-37.78a.64.64 0 0 1 .57-.94l33.28-.01a1.59 1.57-13.6 0 1 1.4.84l6.29 11.91a.7.69 50.8 0 0 1.15.12l10.38-12.49a1 1 0 0 1 .8-.38l39.51.05q.62 0 .22.48l-35.28 42.46a1 1 0 0 0-.12 1.14l22.28 42.39a.65.65 0 0 1-.57.95q-15.88.1-32.01-.03c-1.99-.02-2.52-.28-3.45-2.06q-3.91-7.48-7.23-14.09a1.28 1.28 0 0 0-2.13-.24c-2.66 3.24-12.36 16.44-15.22 16.44l-55.67.01a1.97 1.97 0 0 1-1.96-1.75l-1.01-9.04a1.89 1.88 87.1 0 0-1.85-1.67q-9.21-.08-18.16.05c-5.2.08-3.78 12.31-8.81 12.32q-29.69.12-58.6.08a1.8 1.8 0 0 1-1.78-1.84c.15-4.4 2.06-44.4 1.56-44.91a.4.4 0 0 0-.67.1q-11.04 22.53-21.88 44.88c-.59 1.23-1.34 1.62-2.64 1.66q-9.32.32-17.66-.07a2.1 2.1 0 0 1-1.96-1.76l-6.55-42.17a.76.75 48 0 0-1.48-.08q-.11.42-.03.82.1.54-.05 1.06l-11.03 40.79a2.06 2.05-82.4 0 1-1.98 1.52l-33.48.02a1.11 1.1-82.2 0 1-1.06-1.41q14-50.15 27.91-99.29.56-2.01 1.53-3.85a1 1 0 0 1 .75-.56q.73-.15 2.16-.15 17.36-.01 34.15.01a1.39 1.38-4.3 0 1 1.37 1.17l7.12 44.7a.51.51 0 0 0 .97.14q10.63-22.21 21.46-43.95.5-.99 1.27-1.73a1.3 1.3 0 0 1 .88-.35l36.54.01a1.2 1.2 0 0 1 1.18 1.22c-.72 23.38-1.8 46.87-2.52 70.35q-.28 9.04-1.07 18.02a.3.3 0 0 0 .58.14c.83-1.92 2.17-3.72 2.98-5.36q15.89-32.47 32.23-64.71c1.13-2.24 2.16-1.93 4.36-1.92q15.63.02 31.3.34a.56.55 85.5 0 1 .53.46l11.62 69.67q.33 1.99.56 4a.34.34 0 0 0 .51.25m-35.2-40.5-8.43 19.88a.7.7 0 0 0 .65.96l10.34-.17a.45.44 87 0 0 .43-.49l-1.81-21.18a.37.37 0 0 0-.61-.25c-.46.41-.38.81-.57 1.25M24.5 170.41c9.41-17.8 18.25-35.89 27.63-53.8a2.08 2.07 13.7 0 1 1.84-1.11h39.28a1.2 1.2 0 0 1 1.16 1q3.8 25.23 7.44 50.43.31 2.11.38 4.02a.77.77 0 0 1-.77.8H24.87a1.6 1.58-73.7 0 0-1.34.74l-2.03 3.28a1 1 0 0 1-.86.46L.9 175.95a.6.6 0 0 1-.61-.61l-.05-2.65a.79.78 81.9 0 1 .57-.77q1.61-.45 3.19-.43 9.5.16 19.05-.18a1.7 1.69 13 0 0 1.45-.9m311.75-44.16q-3.44 20.54-6.91 41.07-.24 1.39-.94 3.44a.8.8 0 0 1-.67.51c-14.39 1-28.97.37-43.29.2a.77.76-84.3 0 1-.74-.91c4.9-25.55 26.08-44.81 52.55-44.31m4.02 1.1a1.03 1.02 10.1 0 1 1.21-.84c21.14 4.05 38.42 21.03 36.71 44.09a1 1 0 0 1-.49.75c-1.34.7-2.53.14-3.56.17q-20.08.57-40.22-.08a.67.67 0 0 1-.64-.78zm-164.33 4.9a1.9 1.9 0 0 1 1.08 1.95q-1.78 12.97-4.61 25.74a.98.98 0 0 1-1.58.55c-10.94-8.91-27.76-3.58-31.98 9.66a2.39 2.38 8.9 0 1-2.29 1.66l-29.98-.26a.44.44 0 0 1-.42-.52c6.08-31.77 39.11-52.73 69.78-38.78m18.94 24.23-16.41-.23a.7.7 0 0 1-.67-.81l4.07-23.38a1.6 1.6 0 0 1 1.55-1.31h67.59a1.09 1.08 5.3 0 1 1.07 1.28l-4.36 23.48a1.3 1.3 0 0 1-1.29 1.05l-16.21-.36a1.4 1.4 0 0 0-1.42 1.15l-2.34 12.78a1.06 1.03-11.2 0 1-.5.72q-1.19.74-3.39.79-14.48.32-28.93-.08a.59.58 5.6 0 1-.56-.68l2.31-13.79a.53.52 5.2 0 0-.51-.61m54.21 15.3a.9.9 0 0 1-.89-1.05q3.09-18.7 6.63-37.26c.39-2.04 1.41-2.8 3.43-2.79q14.92.07 29.7.24a.34.33-86.2 0 1 .33.38q-2.81 19.76-7.01 39.28a1.4 1.4 0 0 1-1.35 1.08zm187.97-6.01q1.41 2.98 1.96-.28l5.66-33.44a1.5 1.5 0 0 1 1.5-1.27l30.39-.04a.57.57-85.2 0 1 .55.66l-14.98 85.39a1.76 1.74-84.9 0 1-1.72 1.45l-29.17.02a2.53 2.51 78.2 0 1-2.31-1.52l-15.96-37.17a.45.45 0 0 0-.86.1l-6.71 37.13a1.76 1.76 0 0 1-1.73 1.45h-29.03a1.4 1.4 0 0 1-1.38-1.64l6.8-39.24a1.78 1.77-84.7 0 1 1.77-1.48l13.1.16a1.11 1.1 18.8 0 0 .87-.42q1.38-1.77.27-3.65a.98.97-15 0 0-.84-.48h-13.31a.7.69 5.1 0 1-.69-.82l6.83-38.26a2 2 0 0 1 1.99-1.66l29.51-.01a1.39 1.36-12.4 0 1 1.25.78z" style="fill:#fff"/><path d="M47.96 204.22a2.5 2.5 0 0 0-2.37 1.72l-3.61 11.14a1.7 1.7 0 0 1-1.61 1.17l-39.45-.02a.35.35 0 0 1-.31-.51l20.54-40.64a1.43 1.39 1.9 0 1 .75-.68q1.88-.73 2.85-.72 37.87.27 77.4.31a1.05 1.05 0 0 1 1.04.9l5.7 39.53a1.56 1.56 0 0 1-1.54 1.78l-34.28.08a1.79 1.78 89.8 0 1-1.78-1.78l-.06-11a1.24 1.24 0 0 0-1.24-1.24zm90.03-27.39c3.49 13.75 17.57 17.48 28.89 10.53a.58.58 0 0 1 .88.6l-5.45 30.07a1.49 1.48-1.8 0 1-1.11 1.18q-18.5 4.41-33.38-3.44c-14.2-7.49-22.03-21.51-22.16-37.6-.02-3.59 1.82-2.18 4.04-2.18q13.64.02 27.22.01a1.1 1.1 0 0 1 1.07.83m56.82-.89q14.93.17 29.6-.02a.91.9 4.8 0 1 .9 1.06l-6.93 39.7a1.9 1.9 0 0 1-1.85 1.56l-30.57.01a1 1 0 0 1-.98-1.16q3.24-19.52 6.8-39.1c.39-2.17 1.17-2.07 3.03-2.05m78.5 41.4a1.1 1.1 0 0 1-1.09.9l-30.95.01a.62.61 83.5 0 1-.6-.48q-.37-1.67-.05-3.6 3.13-18.65 6.54-37.35a1.37 1.36-84.2 0 1 1.36-1.12l31.22.36a.47.47 0 0 1 .46.48q-.05 2.37-.45 4.71-3.06 18.04-6.44 36.09m10.13-40.62a.75.74.8 0 1 .75-.72l42.53-.05a.9.9 0 0 1 .9 1.05q-2.84 17.61-5.62 34.5-.86 5.21-1.8 8.26a.67.66-80.3 0 1-.66.47q-2.3-.05-4.3-.65c-19.33-5.8-32.53-21.93-31.8-42.86m48.65.43a1.5 1.49-85.2 0 1 1.47-1.25l43.34-.02a.9.9 0 0 1 .9 1.04c-2.77 19.64-18.18 35.6-36.43 41.77-5.05 1.71-10.3 2.16-15.68 2.33a.8.8 0 0 1-.81-.94z" style="fill:#fff"/><rect width="4.5" height="21.02" x="-2.25" y="-10.51" rx="2.15" style="fill:#fff" transform="rotate(9.1 -1288.43 2131.33)"/></svg>

<?xml version="1.0" encoding="utf-8"?>
<svg viewBox="0.2399 107.9331 799.2969 133.4005" width="799.2969" height="133.4005" xmlns="http://www.w3.org/2000/svg">
  <path d=" M 336.25 126.25 L 339.03 109.48 A 1.00 0.99 85.6 0 1 339.69 108.70 L 341.65 108.01 A 1.36 1.36 0.0 0 1 343.44 109.53 Q 342.17 116.61 341.16 123.14 C 340.67 126.25 339.29 127.05 336.25 126.25 Z" style="fill: rgb(255, 255, 255);"/>
  <path d=" M 697.27 205.46 Q 698.50 204.73 700.06 202.81 Q 712.72 187.34 725.49 171.85 A 2.15 2.14 51.0 0 0 725.73 169.48 L 705.78 131.70 A 0.64 0.64 0.0 0 1 706.35 130.76 L 739.63 130.75 A 1.59 1.57 -13.6 0 1 741.03 131.59 L 747.32 143.50 A 0.70 0.69 50.8 0 0 748.47 143.62 L 758.85 131.13 A 1.03 1.03 0.0 0 1 759.65 130.75 L 799.16 130.80 Q 799.78 130.80 799.38 131.28 L 764.10 173.74 A 1.03 1.03 0.0 0 0 763.98 174.88 L 786.26 217.27 A 0.65 0.65 0.0 0 1 785.69 218.22 Q 769.81 218.32 753.68 218.19 C 751.69 218.17 751.16 217.91 750.23 216.13 Q 746.32 208.65 743.00 202.04 A 1.28 1.28 0.0 0 0 740.87 201.80 C 738.21 205.04 728.51 218.24 725.65 218.24 Q 697.34 218.25 669.98 218.25 A 1.97 1.97 0.0 0 1 668.02 216.50 L 667.01 207.46 A 1.89 1.88 87.1 0 0 665.16 205.79 Q 655.95 205.71 647.00 205.84 C 641.80 205.92 643.22 218.15 638.19 218.16 Q 608.50 218.28 579.59 218.24 A 1.78 1.78 0.0 0 1 577.81 216.40 C 577.96 212.00 579.87 172.00 579.37 171.49 A 0.41 0.41 0.0 0 0 578.70 171.59 Q 567.66 194.12 556.82 216.47 C 556.23 217.70 555.48 218.09 554.18 218.13 Q 544.86 218.45 536.52 218.06 A 2.08 2.08 0.0 0 1 534.56 216.30 L 528.01 174.13 A 0.76 0.75 48.0 0 0 526.53 174.05 Q 526.42 174.47 526.50 174.87 Q 526.60 175.41 526.45 175.93 L 515.42 216.72 A 2.06 2.05 -82.4 0 1 513.44 218.24 L 479.96 218.26 A 1.11 1.10 -82.2 0 1 478.90 216.85 Q 492.90 166.70 506.81 117.56 Q 507.37 115.55 508.34 113.71 A 1.08 1.08 0.0 0 1 509.09 113.15 Q 509.82 113.00 511.25 113.00 Q 528.61 112.99 545.40 113.01 A 1.39 1.38 -4.3 0 1 546.77 114.18 L 553.89 158.88 A 0.51 0.51 0.0 0 0 554.86 159.02 Q 565.49 136.81 576.32 115.07 Q 576.82 114.08 577.59 113.34 A 1.28 1.28 0.0 0 1 578.47 112.99 L 615.01 113.00 A 1.18 1.18 0.0 0 1 616.19 114.22 C 615.47 137.60 614.39 161.09 613.67 184.57 Q 613.39 193.61 612.60 202.59 A 0.30 0.30 0.0 0 0 613.18 202.73 C 614.01 200.81 615.35 199.01 616.16 197.37 Q 632.05 164.90 648.39 132.66 C 649.52 130.42 650.55 130.73 652.75 130.74 Q 668.38 130.76 684.05 131.08 A 0.56 0.55 85.5 0 1 684.58 131.54 Q 690.38 166.35 696.20 201.21 Q 696.53 203.20 696.76 205.21 A 0.34 0.34 0.0 0 0 697.27 205.46 Z M 662.07 164.96 Q 657.88 174.86 653.64 184.84 A 0.69 0.69 0.0 0 0 654.29 185.80 L 664.63 185.63 A 0.45 0.44 87.0 0 0 665.06 185.14 L 663.25 163.96 A 0.37 0.37 0.0 0 0 662.64 163.71 C 662.18 164.12 662.26 164.52 662.07 164.96 Z" style="fill: rgb(255, 255, 255);"/>
  <path d=" M 24.50 170.41 C 33.91 152.61 42.75 134.52 52.13 116.61 A 2.08 2.07 13.7 0 1 53.97 115.50 L 93.25 115.50 A 1.17 1.17 0.0 0 1 94.41 116.50 Q 98.21 141.73 101.85 166.93 Q 102.16 169.04 102.23 170.95 A 0.77 0.77 0.0 0 1 101.46 171.75 L 24.87 171.75 A 1.60 1.58 -73.7 0 0 23.53 172.49 L 21.50 175.77 A 1.00 1.00 0.0 0 1 20.64 176.23 L 0.90 175.95 A 0.62 0.62 0.0 0 1 0.29 175.34 L 0.24 172.69 A 0.79 0.78 81.9 0 1 0.81 171.92 Q 2.42 171.47 4.00 171.49 Q 13.50 171.65 23.05 171.31 A 1.70 1.69 13.0 0 0 24.50 170.41 Z" style="fill: rgb(255, 255, 255);"/>
  <path d=" M 336.25 126.25 Q 332.81 146.79 329.34 167.32 Q 329.10 168.71 328.40 170.76 A 0.75 0.75 0.0 0 1 327.73 171.27 C 313.34 172.27 298.76 171.64 284.44 171.47 A 0.77 0.76 -84.3 0 1 283.70 170.56 C 288.60 145.01 309.78 125.75 336.25 126.25 Z" style="fill: rgb(255, 255, 255);"/>
  <path d=" M 340.27 127.35 A 1.03 1.02 10.1 0 1 341.48 126.51 C 362.62 130.56 379.90 147.54 378.19 170.60 A 0.93 0.93 0.0 0 1 377.70 171.35 C 376.36 172.05 375.17 171.49 374.14 171.52 Q 354.06 172.09 333.92 171.44 A 0.67 0.67 0.0 0 1 333.28 170.66 L 340.27 127.35 Z" style="fill: rgb(255, 255, 255);"/>
  <path d=" M 175.94 132.25 A 1.86 1.86 0.0 0 1 177.02 134.20 Q 175.24 147.17 172.41 159.94 A 0.98 0.98 0.0 0 1 170.83 160.49 C 159.89 151.58 143.07 156.91 138.85 170.15 A 2.39 2.38 8.9 0 1 136.56 171.81 L 106.58 171.55 A 0.44 0.44 0.0 0 1 106.16 171.03 C 112.24 139.26 145.27 118.30 175.94 132.25 Z" style="fill: rgb(255, 255, 255);"/>
  <path d=" M 194.88 156.48 L 178.47 156.25 A 0.69 0.69 0.0 0 1 177.80 155.44 L 181.87 132.06 A 1.57 1.57 0.0 0 1 183.42 130.75 L 251.01 130.75 A 1.09 1.08 5.3 0 1 252.08 132.03 L 247.72 155.51 A 1.29 1.29 0.0 0 1 246.43 156.56 L 230.22 156.20 A 1.41 1.41 0.0 0 0 228.80 157.35 L 226.46 170.13 A 1.06 1.03 -11.2 0 1 225.96 170.85 Q 224.77 171.59 222.57 171.64 Q 208.09 171.96 193.64 171.56 A 0.59 0.58 5.6 0 1 193.08 170.88 L 195.39 157.09 A 0.53 0.52 5.2 0 0 194.88 156.48 Z" style="fill: rgb(255, 255, 255);"/>
  <path d=" M 249.09 171.78 A 0.90 0.90 0.0 0 1 248.20 170.73 Q 251.29 152.03 254.83 133.47 C 255.22 131.43 256.24 130.67 258.26 130.68 Q 273.18 130.75 287.96 130.92 A 0.34 0.33 -86.2 0 1 288.29 131.30 Q 285.48 151.06 281.28 170.58 A 1.38 1.38 0.0 0 1 279.93 171.66 L 249.09 171.78 Z" style="fill: rgb(255, 255, 255);"/>
  <path d=" M 437.06 165.77 Q 438.47 168.75 439.02 165.49 L 444.68 132.05 A 1.52 1.52 0.0 0 1 446.18 130.78 L 476.57 130.74 A 0.57 0.56 -85.2 0 1 477.12 131.40 L 462.14 216.79 A 1.76 1.74 -84.9 0 1 460.42 218.24 L 431.25 218.26 A 2.53 2.51 78.2 0 1 428.94 216.74 L 412.98 179.57 A 0.45 0.45 0.0 0 0 412.12 179.67 L 405.41 216.80 A 1.76 1.76 0.0 0 1 403.68 218.25 L 374.65 218.25 A 1.40 1.40 0.0 0 1 373.27 216.61 L 380.07 177.37 A 1.78 1.77 -84.7 0 1 381.84 175.89 L 394.94 176.05 A 1.11 1.10 18.8 0 0 395.81 175.63 Q 397.19 173.86 396.08 171.98 A 0.98 0.97 -15.0 0 0 395.24 171.50 L 381.93 171.50 A 0.70 0.69 5.1 0 1 381.24 170.68 L 388.07 132.42 A 2.02 2.02 0.0 0 1 390.06 130.76 L 419.57 130.75 A 1.39 1.36 -12.4 0 1 420.82 131.53 L 437.06 165.77 Z" style="fill: rgb(255, 255, 255);"/>
  <path d=" M 47.96 204.22 A 2.49 2.49 0.0 0 0 45.59 205.94 L 41.98 217.08 A 1.69 1.69 0.0 0 1 40.37 218.25 L 0.92 218.23 A 0.35 0.35 0.0 0 1 0.61 217.72 L 21.15 177.08 A 1.43 1.39 1.9 0 1 21.90 176.40 Q 23.78 175.67 24.75 175.68 Q 62.62 175.95 102.15 175.99 A 1.05 1.05 0.0 0 1 103.19 176.89 L 108.89 216.42 A 1.56 1.56 0.0 0 1 107.35 218.20 L 73.07 218.28 A 1.79 1.78 89.8 0 1 71.29 216.50 L 71.23 205.50 A 1.24 1.24 0.0 0 0 69.99 204.26 L 47.96 204.22 Z" style="fill: rgb(255, 255, 255);"/>
  <path d=" M 137.99 176.83 C 141.48 190.58 155.56 194.31 166.88 187.36 A 0.58 0.58 0.0 0 1 167.76 187.96 L 162.31 218.03 A 1.49 1.48 -1.8 0 1 161.20 219.21 Q 142.70 223.62 127.82 215.77 C 113.62 208.28 105.79 194.26 105.66 178.17 C 105.64 174.58 107.48 175.99 109.70 175.99 Q 123.34 176.01 136.92 176.00 A 1.10 1.10 0.0 0 1 137.99 176.83 Z" style="fill: rgb(255, 255, 255);"/>
  <path d=" M 194.81 175.94 Q 209.74 176.11 224.41 175.92 A 0.91 0.90 4.8 0 1 225.31 176.98 L 218.38 216.68 A 1.88 1.88 0.0 0 1 216.53 218.24 L 185.96 218.25 A 0.99 0.99 0.0 0 1 184.98 217.09 Q 188.22 197.57 191.78 177.99 C 192.17 175.82 192.95 175.92 194.81 175.94 Z" style="fill: rgb(255, 255, 255);"/>
  <path d=" M 273.31 217.34 A 1.11 1.11 0.0 0 1 272.22 218.24 L 241.27 218.25 A 0.62 0.61 83.5 0 1 240.67 217.77 Q 240.30 216.10 240.62 214.17 Q 243.75 195.52 247.16 176.82 A 1.37 1.36 -84.2 0 1 248.52 175.70 L 279.74 176.06 A 0.47 0.47 0.0 0 1 280.20 176.54 Q 280.15 178.91 279.75 181.25 Q 276.69 199.29 273.31 217.34 Z" style="fill: rgb(255, 255, 255);"/>
  <path d=" M 283.44 176.72 A 0.75 0.74 0.8 0 1 284.19 176.00 L 326.72 175.95 A 0.91 0.91 0.0 0 1 327.62 177.00 Q 324.78 194.61 322.00 211.50 Q 321.14 216.71 320.20 219.76 A 0.67 0.66 -80.3 0 1 319.54 220.23 Q 317.24 220.18 315.24 219.58 C 295.91 213.78 282.71 197.65 283.44 176.72 Z" style="fill: rgb(255, 255, 255);"/>
  <path d=" M 332.09 177.15 A 1.50 1.49 -85.2 0 1 333.56 175.90 L 376.90 175.88 A 0.91 0.91 0.0 0 1 377.80 176.92 C 375.03 196.56 359.62 212.52 341.37 218.69 C 336.32 220.40 331.07 220.85 325.69 221.02 A 0.80 0.80 0.0 0 1 324.88 220.08 L 332.09 177.15 Z" style="fill: rgb(255, 255, 255);"/>
  <rect x="-2.25" y="-10.51" transform="matrix(0.9874140620231628, 0.15815800428390503, -0.15815800428390503, 0.9874140620231628, 320.8699951171875, 230.6000061035156)" width="4.5" height="21.02" rx="2.15" style="fill: rgb(255, 255, 255);"/>
</svg>
